X:1
T:Psalm 26
T:V 1
L:1/4
M:12/4
I:linebreak $
K:C
V:1 treble nm="Pipe Organ" snm="Org."
V:1
 E2 A2 G2 F F E3 z |$[M:10/4] A2 G E F G A3 z |$[M:14/4] c2 B A G2 E2 F D E3 z |$ %3
w: O HEER, doen aan my reg!|Ek wan- del as u kneg|en wil op- reg met U ver- keer.|
[M:12/4] G2 A B c B A2 G3 z |$ c2 B d A c B2 A3 z |$[M:14/4] A2 c2 B2 A G F F E4 |] %6
w: Op U al- leen ver- trou ek;|op U, my Rots- steen, bou ek,|ek sal nie wan- kel, trou- e HEER!|

